X: 114
T: Pollonesse #114
M: 3/4
L: 1/16
R: Pollonesse
K: D
Q: 110
D2DE D2DE F2FG|A2AB A4d4|edef g2f2 e2d2|f2ed cdcB ABAG|
FGFE D2DE F2FG|A2AB A4d4|edef g2f2 e2d2|cdec d4D4:|
a4a2ba g2ag|f2ef g2f2 e2d2|d2ef g2f2 e2d2|f2ed cdcB ABAG|
FGFE D2DE F2FG|A^GAB A4d4|edef g2f2 e2d2| cdec d4D4:|

